icons/AfterEffects.svg

<svg xmlns="http://www.w3.org/2000/svg" width="256" height="256" fill="none" viewBox="0 0 256 256"><rect width="256" height="256" fill="#00005B" rx="60"/><path fill="#99F" d="M105.157 156.12H65.4769L57.3702 181.293C57.1569 182.253 56.3035 182.893 55.3435 182.787H35.2902C34.1169 182.787 33.7969 182.147 34.1169 180.867L68.4635 82.4133C68.7835 81.3467 69.1035 80.3867 69.5302 79.1067C69.9569 76.8667 70.1702 74.52 70.1702 72.1733C70.0635 71.64 70.4902 71.1067 71.0235 71H71.3435H98.6502C99.3969 71 99.9302 71.32 100.037 71.8533L138.97 180.653C139.29 181.827 138.97 182.36 137.904 182.36H115.61C114.864 182.467 114.117 181.933 113.904 181.187L105.157 155.587V156.12ZM71.6635 134.893H98.7568C98.1168 132.653 97.2635 129.987 96.3035 127.213C95.3435 124.333 94.3835 121.24 93.4235 118.04C92.3569 114.733 91.3968 111.533 90.3302 108.227C89.2635 104.92 88.3035 101.827 87.4502 98.7333C86.5969 95.7467 85.8502 92.9733 85.1035 90.4133H84.8902C83.9302 95 82.7569 99.5867 81.2635 104.173C79.6635 109.293 78.0635 114.627 76.3569 119.96C74.9702 125.4 73.2635 130.413 71.6635 134.893V134.893Z"/><path fill="#99F" d="M201.797 146.52H167.984C168.41 149.827 169.477 153.133 171.29 156.013C173.21 158.893 175.877 161.133 179.077 162.413C183.344 164.227 188.037 165.187 192.73 165.08C196.464 164.973 200.197 164.653 203.824 163.907C207.13 163.48 210.33 162.627 213.317 161.453C213.85 161.027 214.17 161.24 214.17 162.307V178.627C214.17 179.053 214.064 179.48 213.957 179.907C213.744 180.227 213.53 180.44 213.21 180.653C209.797 182.147 206.277 183.213 202.544 183.853C197.53 184.813 192.517 185.24 187.397 185.133C179.29 185.133 172.464 183.853 166.917 181.4C161.69 179.16 157.104 175.64 153.477 171.267C150.064 167.107 147.61 162.413 146.117 157.293C144.624 152.28 143.877 147.053 143.877 141.72C143.877 135.96 144.73 130.307 146.544 124.76C148.25 119.427 150.917 114.52 154.544 110.147C158.064 105.88 162.437 102.467 167.45 100.013C172.464 97.56 178.437 96.7067 185.264 96.7067C190.917 96.6 196.57 97.6667 201.797 100.013C206.17 101.933 210.01 104.813 212.997 108.547C215.77 112.173 218.01 116.227 219.397 120.707C220.784 124.973 221.424 129.347 221.424 133.72C221.424 136.28 221.317 138.52 221.21 140.547C220.997 142.573 220.89 144.067 220.784 145.027C220.677 145.773 220.037 146.413 219.29 146.413C218.65 146.413 217.477 146.52 215.77 146.627C214.064 146.84 212.037 146.947 209.584 146.947C207.13 146.947 204.57 146.52 201.797 146.52V146.52ZM167.984 130.947H190.49C193.264 130.947 195.29 130.947 196.57 130.84C197.424 130.733 198.277 130.52 199.024 129.987V128.92C199.024 127.533 198.81 126.253 198.384 124.973C196.464 119 190.81 114.947 184.517 115.16C178.65 114.84 173.104 117.933 170.33 123.267C169.05 125.72 168.304 128.28 167.984 130.947Z"/></svg>

<svg xmlns="http://www.w3.org/2000/svg" width="256" height="256" fill="none" viewBox="0 0 256 256"><rect width="256" height="256" fill="#00005B" rx="60"/><path fill="#99F" d="M105.16 156.12H65.48l-8.11 25.17a1.87 1.87 0 0 1-2.03 1.5H35.3c-1.17 0-1.5-.64-1.17-1.92L68.46 82.4c.32-1.06.64-2.02 1.07-3.3.43-2.24.64-4.59.64-6.94-.1-.53.32-1.06.85-1.17h27.63c.75 0 1.28.32 1.39.85l38.93 108.8c.32 1.18 0 1.71-1.07 1.71h-22.29a1.6 1.6 0 0 1-1.7-1.17l-8.75-25.6zm-33.5-21.23h27.1c-.64-2.24-1.5-4.9-2.46-7.68a321 321 0 0 1-2.88-9.17c-1.06-3.3-2.02-6.5-3.09-9.81a231 231 0 0 1-2.88-9.5c-.85-2.98-1.6-5.76-2.35-8.32h-.21c-.96 4.59-2.13 9.18-3.63 13.76-1.6 5.12-3.2 10.46-4.9 15.79a166 166 0 0 1-4.7 14.93m130.14 11.63h-33.82a23.5 23.5 0 0 0 3.31 9.5 17 17 0 0 0 7.79 6.4 33 33 0 0 0 13.65 2.66 64 64 0 0 0 11.1-1.17 40 40 0 0 0 9.49-2.46c.53-.42.85-.21.85.86v16.32c0 .42-.1.85-.21 1.28-.22.32-.43.53-.75.74a46 46 0 0 1-10.67 3.2 72 72 0 0 1-15.14 1.28c-8.11 0-14.94-1.28-20.48-3.73a36 36 0 0 1-13.44-10.13 39 39 0 0 1-7.36-13.98 55 55 0 0 1-2.24-15.57c0-5.76.85-11.41 2.66-16.96a44 44 0 0 1 8-14.61A39 39 0 0 1 167.45 100c5.01-2.45 10.99-3.3 17.81-3.3a39 39 0 0 1 16.54 3.3 29.4 29.4 0 0 1 11.2 8.54 39 39 0 0 1 6.4 12.16 42 42 0 0 1 2.02 13.01c0 2.56-.1 4.8-.21 6.83-.21 2.02-.32 3.52-.43 4.48-.1.74-.74 1.38-1.49 1.38-.64 0-1.81.11-3.52.22-1.7.21-3.73.32-6.19.32-2.45 0-5.01-.43-7.78-.43m-33.82-15.57h22.51c2.77 0 4.8 0 6.08-.11.85-.1 1.7-.32 2.45-.85v-1.07c0-1.39-.21-2.67-.64-3.95a14.1 14.1 0 0 0-13.86-9.81 15 15 0 0 0-14.19 8.1 22 22 0 0 0-2.35 7.69"/></svg>
